src/icons/service-slack.svg

<svg enable-background="new 0 0 14 14" viewBox="0 0 14 14" xmlns="http://www.w3.org/2000/svg"><g fill="#e01e5a" transform="translate(0 7)"><path d="m3 1.8c0 .8-.7 1.5-1.5 1.5s-1.5-.7-1.5-1.5.7-1.4 1.5-1.4h1.5z"/><path d="m3.7 1.8c0-.8.7-1.5 1.5-1.5s1.4.7 1.4 1.5v3.7c0 .8-.6 1.5-1.4 1.5s-1.5-.7-1.5-1.5z"/></g><g fill="#36c5f0"><path d="m5.2 3c-.8 0-1.5-.7-1.5-1.5s.7-1.5 1.5-1.5 1.5.7 1.5 1.5v1.5z"/><path d="m5.2 3.7c.8 0 1.5.7 1.5 1.5s-.7 1.4-1.5 1.4h-3.7c-.8 0-1.5-.6-1.5-1.4s.7-1.5 1.5-1.5z"/></g><g fill="#2eb67d" transform="translate(7)"><path d="m4 5.2c0-.8.7-1.5 1.5-1.5s1.5.7 1.5 1.5-.7 1.5-1.5 1.5h-1.5z"/><path d="m3.3 5.2c0 .8-.7 1.5-1.5 1.5-.8-.1-1.4-.7-1.4-1.5v-3.7c0-.8.6-1.5 1.4-1.5s1.5.7 1.5 1.5z"/></g><g fill="#ecb22e" transform="translate(7 7)"><path d="m1.8 4c.8 0 1.5.7 1.5 1.5s-.7 1.5-1.5 1.5-1.5-.7-1.5-1.5v-1.5z"/><path d="m1.8 3.3c-.8 0-1.5-.7-1.5-1.5.1-.8.7-1.4 1.5-1.4h3.7c.8 0 1.5.6 1.5 1.4s-.7 1.5-1.5 1.5z"/></g></svg>

<?xml version="1.0" encoding="utf-8"?>
<!-- Generator: Adobe Illustrator 20.1.0, SVG Export Plug-In . SVG Version: 6.00 Build 0)  -->
<svg version="1.1" id="Layer_1" xmlns="http://www.w3.org/2000/svg" xmlns:xlink="http://www.w3.org/1999/xlink" x="0px" y="0px"
	 viewBox="0 0 14 14" style="enable-background:new 0 0 14 14;" xml:space="preserve">
<style type="text/css">
	.st0{fill:#E01E5A;}
	.st1{fill:#36C5F0;}
	.st2{fill:#2EB67D;}
	.st3{fill:#ECB22E;}
</style>
<title>HDL/Icon/Standard/Service/slack</title>
<desc>Created with Sketch.</desc>
<g id="Colors">
	<g id="Service-icons" transform="translate(-125.000000, -1579.000000)">
		<g id="Slack_1_" transform="translate(104.000000, 1561.000000)">
			<g id="HDL_x2F_Icon_x2F_Standard_x2F_Service_x2F_slack" transform="translate(21.000000, 18.000000)">
				<g id="Slack">
					<g id="Group" transform="translate(0.000000, 7.000000)">
						<path id="Path" class="st0" d="M3,1.8c0,0.8-0.7,1.5-1.5,1.5S0,2.6,0,1.8s0.7-1.4,1.5-1.4H3V1.8z"/>
						<path id="Path_1_" class="st0" d="M3.7,1.8c0-0.8,0.7-1.5,1.5-1.5S6.6,1,6.6,1.8v3.7C6.6,6.3,6,7,5.2,7S3.7,6.3,3.7,5.5V1.8z"
							/>
					</g>
					<g id="Group_1_">
						<path id="Path_2_" class="st1" d="M5.2,3C4.4,3,3.7,2.3,3.7,1.5S4.4,0,5.2,0s1.5,0.7,1.5,1.5V3H5.2z"/>
						<path id="Path_3_" class="st1" d="M5.2,3.7c0.8,0,1.5,0.7,1.5,1.5S6,6.6,5.2,6.6H1.5C0.7,6.6,0,6,0,5.2s0.7-1.5,1.5-1.5H5.2z"
							/>
					</g>
					<g id="Group_2_" transform="translate(7.000000, 0.000000)">
						<path id="Path_4_" class="st2" d="M4,5.2c0-0.8,0.7-1.5,1.5-1.5S7,4.4,7,5.2S6.3,6.7,5.5,6.7H4V5.2z"/>
						<path id="Path_5_" class="st2" d="M3.3,5.2c0,0.8-0.7,1.5-1.5,1.5C1,6.6,0.4,6,0.4,5.2V1.5C0.4,0.7,1,0,1.8,0s1.5,0.7,1.5,1.5
							V5.2z"/>
					</g>
					<g id="Group_3_" transform="translate(7.000000, 7.000000)">
						<path id="Path_6_" class="st3" d="M1.8,4c0.8,0,1.5,0.7,1.5,1.5S2.6,7,1.8,7S0.3,6.3,0.3,5.5V4H1.8z"/>
						<path id="Path_7_" class="st3" d="M1.8,3.3C1,3.3,0.3,2.6,0.3,1.8C0.4,1,1,0.4,1.8,0.4h3.7C6.3,0.4,7,1,7,1.8S6.3,3.3,5.5,3.3
							H1.8z"/>
					</g>
				</g>
			</g>
		</g>
	</g>
</g>
</svg>
